X:1
T:Si iay du bien , helas
T:Maille
T:Source : Livre XI de 28 chansons nouvelles à 4 parties---Paris---P.Attaingnant---1542. Editor : André Vierendeels (02/06/18) Notes : Original clefs : C1, C3, C4, F4 Original note values have been halved Editorial accidentals above the staff Square brackets indicate ligatures 
T:Si iay du bien , helas
T:©
T:©
T:©
C:Maille
Z:©
%%score [ 1 [ 2 3 ] 4 ]
L:1/8
Q:1/4=120
M:2/2
K:F
V:1 treble nm="Alto" snm="A"
V:2 treble-8 nm="Tenor 1" snm="T 1"
V:3 treble-8 nm="Tenor 2" snm="T 2"
V:4 bass nm="Bass" snm="B"
V:1
 G4 A2 G2 | F4 z2 B2 | B2 B2 A2 c2- | cB B4 A2 | B4 z2 G2 | BAGF G2 G2 | F2 G2 A2 B2- | BA G4 F2 | %8
w: Si iay du|bien, he-|las, cest par men-|* * son- *|ge, et|mon _ _ _ _ tor-|ment est pu- re|_ _ ve- ri-|
w: Je nay doul-|ceur que|dor- mant et en|_ _ son- *|ge, et|en _ _ _ _ veil-|lant ie nay qu'au-|* * ste- ri-|
[M:2/4] G4 :|[M:2/2] z2 F2 F2 E2 | D2 D2 G4- | G2 G2 F2 ED | E2 E2 D4- | D4 z2 G2 | G2 F2 G2 B2 | %15
w: té,|le iour mest|mal et bien|_ l'ob- scu- * *|* ri- té,|_ le|court som- meil ma|
w: té,|||||||
 A2 G2 AGAB | c2 B4 A2 | B4 z2 G2 | F2 B2 A2 F2 | F2 F2 E2 D2 | G3 A B2 A2- | A2 GF G4 | F8 | %23
w: da- me me _ _ _|_ pre- sen-|te, et|le res- veil la|faict trou- ver ab-|sen- * * *||te,|
w: ||||||||
 z4 F4 | G4 G4 | F2 F2 B2 B2 | AGFE F2 GF | ED D4 C2 |[M:2/4] D4 |:[M:2/2] z4 F4 | F2 G2 F4 | %31
w: O|pau- vres|yeulx, où es- tes|vous _ _ _ _ _ _|_ _ _ re-|duictz?|Clos,|vous voy- ez|
w: ||||||||
 z2 B2 B2 B2 | A2 c4 B2- | B2 A2 B4 | z2 G2 BAGF | G2 G2 F2 G2 | A2 B3 A G2- |"^#" G2 F2 G4 :| %38
w: tout ce qui|vous con- ten-|* * te,|et des- * * *|cou- vers, ne voy-|ez rien _ _|_ qu'en- nuys.|
w: |||||||
V:2
 d4 f2 e2 | d2 d2 f4- | f2 f2 f2 g2- | gfde f4 | d2 f2 e2 e2 | d4 d4 | d2 c2 f4- | f2 e2 d4 | %8
w: Si iay du|bien, he- las,|_ cest par men-|* * * * son-|ge, et mon tor-|ment est|pu- re ve-|* * ri-|
w: Je nay doul-|ceur que dor-|* mant et en|_ _ _ _ son-|ge, et en veil-|lant ie|nay qu'au- ste-|* * ri-|
[M:2/4] d4 :|[M:2/2] z2 d2 d2 c2 | A2 B2 d4 | e4 d2 d2- | d2 c2 d4 | z2 A2 B3 c | d4 z2 d2 | %15
w: té,|le iour mest|mal et bien|_ l'ob- scu-|* ri- té,|le court som-|meil ma|
w: té,|||||||
 f2 d2 f2 f2 |"^b" g2 fe f4 | d2 d2 c2 e2 | d8 | z2 d2 c2 f2 | _e2 c2 d2 f2- |"^#" fe d4 c2 | d8 | %23
w: da- me me pre-|sen- * * *|te, et le res-|veil|la faict trou-|ver ab- sen- *||te,|
w: ||||||||
 z4 d4 | G4 e4 | d2 d2 d2 d2 | fedc d2 d2 | cBAG A4 |[M:2/4] A4 |:[M:2/2] z4 d4 | d2 c2 d2 d2 | %31
w: O|pau- vres|yeulx, où es- tes|vous _ _ _ _ re-||duictz?-|Clos,|vous voy- ez tout|
w: ||||||||
 f6 f2 | f2 g3 f de | f4 d2 f2 | e2 e2 d4 | d4 d2 c2 | f6 e2 | d4 d4 :| %38
w: ce qui|vous con- * * *|ten- te, et|des- cou- vers,|ne voy- ez|rien _|qu'en- nuys.|
w: |||||||
V:3
 B4 c2 c2 | A2 A2 d4- | d2 d2 c2 e2 | d2 cB c4 | B2 d2 c2 c2 | B6 B2 | A2 G2 d4- | d2 cB A4 | %8
w: Si iay du|bien, he- las,|_ cest par men-|son- * * *|ge, et mon tor-|ment est|pu- re ve-|* * * ri-|
w: Je nay doul-|ceur que dor-|* mant et en|son- * * *|ge, et en veil-|lant ie|nay qu'au- ste-|* * * ri-|
[M:2/4] G4 :|[M:2/2] z2 A2 B2 G2 | F2 G2 B2 B2 | c3 B AG B2 | A4 z2 G2 | G2 F2 G3 A | B2 A2 B2 B2 | %15
w: té,|le iour mest|mal et bien l'ob-|su- * * * ri-|té, le|court som- meil _|_ ma da- me|
w: té,|||||||
 c2 Bc defd |"^b" edcB c4 | B4 z4 | z2 G2 F2 B2 | A2 F2 A2 A2 | G2 C2 F3 G | A2 B2 G4 | A4 D3 E | %23
w: me pre- * * * * *|* * * * sen-|te,|et le res-|veil la faict trou-|ver ab- sen- *||te, O _|
w: ||||||||
 FEFG A2 B2- | B2 AG c2 c2 | A2 F2 G2 G2 | F3 G AFBA | GFED E4 |[M:2/4] D4 |:[M:2/2] z4 A4 | %30
w: _ _ _ _ _ pau-|* * * * vres|yeulx où es- tes|vous _ _ _ _ _|_ _ _ _ re-|duictz?|Clos,|
w: |||||||
 B2 G2 A2 A2 | d6 d2 |"^b" c2 e2 d2 cB |"^b" c4 B2 d2 | c2 c2 B4- | B2 B2 A2 G2 | d6 cB | A4 G4 :| %38
w: vous voy- ez tout|ce qui|vous con- ten- * *|* te, et-|cou- verts, ne|_ voy- ez rien|qu'en- * *|* nuys.|
w: ||||||||
V:4
 G,4 F,2 C,2 | D,4 z2 B,,2 | B,,C,D,E, F,2 C,2 |"^#" G,2 G,2 F,4 | B,,2 B,,2 C,2 C,2 | G,,6 G,,2 | %6
w: Si iay du|bien, he-|las _ _ _ _ cest|par men- son-|ge, et mon tor-|ment est|
w: Je nay doul-|ceur que|dor- * * * * mant|et en son-|ge, et en veil-|lant ie|
 D,2 E,2 D,C,B,,A,, | B,,2 C,2 D,4 |[M:2/4] G,,4 :|[M:2/2] z2 D,2 B,,2 C,2 | D,2 G,,2 G,,2 G,,2 | %11
w: pu- re ve- * * *|* * ri-|té,|le iour mest|mal et bien l'ob-|
w: nay qu'au- ste- * * *|* * ri-|té,|||
 C,2 C,2 D,4 | z4 G,,4 | D,2 D,2 G,,4 | z2 D,2 G,2 G,2 | F,2 G,2 D,4 | C,2 G,2 F,4 | %17
w: scu- ri- té,|le|court som- meil|da- me me|pre- sen- *||
w: ||||||
 B,,2 B,,2 C,2 C,2 | D,2 G,,2 D,3 E, | F,2 B,,2 C,2 D,2 | _E,3 D, B,,C,D,=E, | F,2 B,,2 E,4 | %22
w: te, et le res-|veil la faict _|_ trou- ver ab-|sen- * * * * *||
w: |||||
 D,4 z4 | D,8 | E,4 C,4 | D,4 z2 G,,2 | D,6 B,,2 | C,2 D,2 A,,4 |[M:2/4] D,4 |:[M:2/2] z4 D,4 | %30
w: te,|O|pau- vres|yeulx, où|es- tes|vous re- *|duictz?|Clos,|
w: ||||||||
 B,,2 E,2 D,4 | z2 B,,2 B,,C,D,E, | F,2 C,2 G,2 G,2 | F,4 B,,2 B,,2 | C,2 C,2 G,,4- | %35
w: vous voy- ez|ce qui _ _ _|_ _ vous con-|ten- te, et|des- cou- vers,|
w: |||||
 G,,2 G,,2 D,2 E,2 | D,C,B,,A,, B,,2 C,2 | D,4 G,,4 :| %38
w: _ ne voy- ez|rien _ _ _ _ _|qu'en- nuys.|
w: |||

